X:3
T:Bourree?
Z:Dave Holland <dave@biff.org.uk>
S:St Chartier festival 2002
N:marks = claps
M:2/4
R:Bourree
L:1/8
Q:1/4=140
K:Am
"Am"c2 Bc|A3 c|"G"B>c dB|"Am"c2 A2|\
c2 Bc|A4|"G"G2 B2|"Am"A4:|
"Am"MA2 "F"Mf2|"C"Me4|"G"B>d cB|"Am"c2 A2|\
"Am"MA2 "F"Mf2|"C"Me4|"G"B>d cB|"Am"A4:|
<end>
<start>
